X:1
T:For den norske bonde
T:fra 'Bondens sangbok' (1902)
T:Louis Spohr
T:Jonas Dahl
%%score [ ( 1 2 ) ( 3 4 ) ]
L:1/8
Q:1/4=112
M:4/4
K:C
V:1 treble-8 nm="T"
V:2 treble-8 
V:3 bass nm="B"
V:4 bass 
V:1
!f!"^Ikke for langsomt" C3 C E2 G2 | c4 G4 | c3 c!<(! c2 d2!<)! | e6 z2 |!mf! G3 G c2 c2 | %5
w: Al kul- tur er|dyr- ken,|først og fremst av|jord;|der er mo- der-|
!<(! B6 ^c2!<)! | d3 G!>(! B2 A2 | G6!>)! z2 ||!p! A3 A!<(! A2 B2!<)! | c8 | %10
w: styr- ken,|først bag plo- gen|gror|sam- funds- li- vet|frem,|
!mf! d3 B!<(! c2 d2!<)! | e8 |!f! c2!<(! G2 c2!<)! d2 |!ff! e4 !>!g2 !>!f2 | e6 d2 | c6 z2 |] %16
w: bygd og by og|hjem,|før- ste bon- den|var he- le|lan- dets|far.|
V:2
 C3 C E2 G2 | c4 G4 | G3 G A2 B2 | c6 x2 | G3 G A2 A2 | A4 G4 | B3 G G2 ^F2 | G6 x2 || %8
 A3 A A2 ^G2 | A8 | B3 =G A2 B2 | c8 | c2 G2 c2 B2 | c4 c2 d2 | c4!>(! B4!>)! | G6 x2 |] %16
V:3
!f! C,3 C, E,2 G,2 | C4 G,4 | E,3 E,!<(! E,2 G,2!<)! | G,6 z2 |!mf! E,3 E, E,2 E,2 | %5
!<(! (^D,2 ^F,2) E,4!<)! | G,3 G,!>(! D,2 C,2 | B,,6!>)! z2 ||!p! F,3 F, F,2 E,2 |!mf! E,8 | %10
!mf! G,3 G, G,2 G,2 | G,8 |!f! C2!<(! G,2 G,2!<)! G,2 |!ff! G,4 G,2 A,2 | G,4!>(! F,4!>)! | %15
 E,6 z2 |] %16
V:4
 C,3 C, E,2 G,2 | C4 G,4 | C,3 C, A,,2 G,,2 | C,6 x2 | C,3 B,, A,,2 A,,2 | B,,4 E,4 | %6
w: ||||||
 =D,3 E, D,2 [D,,D,]2 | G,,6 x2 || z8 | A,,3!<(! C, E,2 A,2!<)! | G,6 z2 | C,3!<(! C, E,2 G,2!<)! | %12
w: |||sam- funds- li- vet|frem,||
 C2 G,2 E,2 D,2 | C,4 !>!E,2 !>!F,2 | G,4 G,,4 | C,6 x2 |] %16
w: ||||

